archdroid-icon-theme/Archdroid-Green/places/scalable/folder-ubuntu-color.svg

<svg fill="#4caf50" height="48" viewBox="0 0 48 48" width="48" xmlns="http://www.w3.org/2000/svg"><path d="m8 8c-2.21 0-3.980469 1.79-3.980469 4l-.019531 24c0 2.21 1.79 4 4 4h32c2.21 0 4-1.79 4-4v-20c0-2.21-1.79-4-4-4h-16l-4-4zm27.4375 8.25c.368369-.026046.747832.053403 1.091797.251953.917342.529669 1.23084 1.7019.701172 2.619141-.529365.916936-1.7019 1.230941-2.619141.701172-.917038-.529365-1.230637-1.7019-.701172-2.619141.331043-.573339.913395-.909715 1.527344-.953125zm-4.75 2.041016c.771192 0 1.517905.106617 2.226563.302734.125271.770381.581619 1.479575 1.310546 1.900391.728016.42041 1.571651.462976 2.300782.1875 1.418226 1.394408 2.340114 3.291704 2.474609 5.404297l-2.732422.039062c-.252368-2.861182-2.65332-5.105469-5.580078-5.105469-.843355 0-1.641799.187731-2.359375.521485l-1.332031-2.386719c1.113053-.551358 2.364701-.863281 3.691406-.863281zm-4.623047 1.40039 1.402344 2.347657c-1.440321 1.013525-2.382813 2.68859-2.382813 4.583984 0 1.895597.942492 3.570459 2.382813 4.583984l-1.402344 2.347657c-1.678398-1.121264-2.926793-2.833801-3.445312-4.841797.605885-.493689.992187-1.247098.992187-2.089844 0-.842949-.386403-1.594101-.992187-2.087891.518621-2.007794 1.766914-3.722791 3.445312-4.84375zm-5.146484 5.013672c1.059134 0 1.917969.858429 1.917969 1.917969 0 1.059033-.858936 1.917969-1.917969 1.917969-1.059438 0-1.917969-.858936-1.917969-1.917969 0-1.059438.858531-1.917969 1.917969-1.917969zm15.349609 2.414063 2.732422.039062c-.133988 2.112593-1.056484 4.009889-2.474609 5.404297-.729131-.275578-1.572766-.232708-2.300782.1875-.729029.42112-1.185275 1.13001-1.310546 1.900391-.708759.196117-1.455371.302734-2.226563.302734-1.326299 0-2.580204-.310173-3.693359-.861328l1.333984-2.388672c.717373.333754 1.515919.521484 2.359375.521484 2.927062 0 5.328622-2.243272 5.580078-5.105468zm-.564453 6.050781c.613941.043342 1.196428.37985 1.527344.953125.529567.91724.216068 2.089675-.701172 2.619141-.917342.529567-2.089472.216068-2.619141-.701172-.529364-.916937-.216068-2.089574.701172-2.619141.343889-.19855.723432-.277958 1.091797-.251953z" fill="#dd4814"/></svg>

<svg fill="#4caf50" height="48" version="1.1" viewBox="0 0 48 48" width="48" xmlns="http://www.w3.org/2000/svg"><path d="M8 8C5.79 8 4.019531 9.79 4.019531 12L4 36C4 38.21 5.79 40 8 40L40 40C42.21 40 44 38.21 44 36L44 16C44 13.79 42.21 12 40 12L24 12 20 8 8 8zM35.4375 16.25C35.805869 16.223954 36.185332 16.303403 36.529297 16.501953 37.446639 17.031622 37.760137 18.203853 37.230469 19.121094 36.701104 20.03803 35.528569 20.352035 34.611328 19.822266 33.69429 19.292901 33.380691 18.120366 33.910156 17.203125 34.241199 16.629786 34.823551 16.29341 35.4375 16.25zM30.6875 18.291016C31.458692 18.291016 32.205405 18.397633 32.914063 18.59375 33.039334 19.364131 33.495682 20.073325 34.224609 20.494141 34.952625 20.914551 35.79626 20.957117 36.525391 20.681641 37.943617 22.076049 38.865505 23.973345 39 26.085938L36.267578 26.125C36.01521 23.263818 33.614258 21.019531 30.6875 21.019531 29.844145 21.019531 29.045701 21.207262 28.328125 21.541016L26.996094 19.154297C28.109147 18.602939 29.360795 18.291016 30.6875 18.291016zM26.064453 19.691406L27.466797 22.039063C26.026476 23.052588 25.083984 24.727653 25.083984 26.623047 25.083984 28.518644 26.026476 30.193506 27.466797 31.207031L26.064453 33.554688C24.386055 32.433424 23.13766 30.720887 22.619141 28.712891 23.225026 28.219202 23.611328 27.465793 23.611328 26.623047 23.611328 25.780098 23.224925 25.028946 22.619141 24.535156 23.137762 22.527362 24.386055 20.812365 26.064453 19.691406zM20.917969 24.705078C21.977103 24.705078 22.835938 25.563507 22.835938 26.623047 22.835938 27.68208 21.977002 28.541016 20.917969 28.541016 19.858531 28.541016 19 27.68208 19 26.623047 19 25.563609 19.858531 24.705078 20.917969 24.705078zM36.267578 27.119141L39 27.158203C38.866012 29.270796 37.943516 31.168092 36.525391 32.5625 35.79626 32.286922 34.952625 32.329792 34.224609 32.75 33.49558 33.17112 33.039334 33.88001 32.914063 34.650391 32.205304 34.846508 31.458692 34.953125 30.6875 34.953125 29.361201 34.953125 28.107296 34.642952 26.994141 34.091797L28.328125 31.703125C29.045498 32.036879 29.844044 32.224609 30.6875 32.224609 33.614562 32.224609 36.016122 29.981337 36.267578 27.119141zM35.703125 33.169922C36.317066 33.213264 36.899553 33.549772 37.230469 34.123047 37.760036 35.040287 37.446537 36.212722 36.529297 36.742188 35.611955 37.271755 34.439825 36.958256 33.910156 36.041016 33.380792 35.124079 33.694088 33.951442 34.611328 33.421875 34.955217 33.223325 35.33476 33.143917 35.703125 33.169922z" fill="#dd4814"/></svg>
